X: 25236
T: Mama's Pet
R: reel
M: 4/4
K: Gmajor
|~G2 FG EGDE|G2 (3BAG dGBA|~G2 FG EGDG|Bd{f}ed BA{B}AB|
G2 FG EGDE|G2 (3BAG dGBA|~G2 FG EGDG|Bd{f}ed BAAe|
dG(3BAG d3e|dgbg abge|dG(3BAG d2GA|Bd{f}ed BA{B}Ae|
dG(3BAG d3e|dgbg abg2|G2GB ~A2GA|Bd{f}ed BA{B}AB|

